X: 10432
M: 3/8
L: 1/16
K: Bb
d2d2 cd | e2e2 de | fdBABd | cFGABc |\
d2d2 cd | e2e2 de | fgecAc | B4 ::\
fd |\
g2g2 fd | e2c2 ec |
=Bcdefg | fedcec |\
f2f2 ec | d2B2 dB | ABcdef | edcBdB |\
ecAfdB | ecAfdB | ececdB | fgec"_D.C."Bc !segno!:|


